X:537
T:Reel 537
M:4/4
K:Gmaj
L:1/8
dB|ADDE FEFG|A>D (3DDD cABG|ADFE FEFG|AdcA BcBc|ADFD ADGB|ADFD G2FG|AGAG AcBc|dccA G2|AG|FGAc BABG|Adde fdec|AGFG ABcA|FdcA G2FG|AGAG FGFG|Adde f2ef|gefd ecdc|BGAF G2|
